modules/hawcons-filled/icons/icon-23-stop-watch.svg

<?xml version="1.0" encoding="UTF-8" standalone="no"?>
<svg width="32px" height="32px" viewBox="0 0 32 32" version="1.1" xmlns="http://www.w3.org/2000/svg" xmlns:xlink="http://www.w3.org/1999/xlink" xmlns:sketch="http://www.bohemiancoding.com/sketch/ns">
    <!-- Generator: Sketch 3.0.3 (7891) - http://www.bohemiancoding.com/sketch -->
    <title>icon 23 stop watch</title>
    <desc>Created with Sketch.</desc>
    <defs></defs>
    <g id="Page-1" stroke="none" stroke-width="1" fill="none" fill-rule="evenodd" sketch:type="MSPage">
        <g id="icon-23-stop-watch" sketch:type="MSArtboardGroup" fill="#929292">
            <path d="M16.1467077,18.1461855 L19.2653467,15.0275465 C19.4566334,14.8362598 19.7796116,14.8298641 19.9748737,15.0251263 C20.1644253,15.2146778 20.1690523,15.5380545 19.9724535,15.7346533 L16.8538145,18.8532923 C16.9475239,19.0491099 17,19.2684267 17,19.5 C17,20.3284271 16.3284271,21 15.5,21 C15.2684267,21 15.0491099,20.9475239 14.8532923,20.8538145 L13.7346533,21.9724535 C13.5433666,22.1637402 13.2203884,22.1701359 13.0251263,21.9748737 C12.8355747,21.7853222 12.8309477,21.4619455 13.0275465,21.2653467 L14.1461855,20.1467077 C14.0524761,19.9508901 14,19.7315733 14,19.5 C14,18.6715729 14.6715729,18 15.5,18 C15.7315733,18 15.9508901,18.0524761 16.1467077,18.1461855 L16.1467077,18.1461855 L16.1467077,18.1461855 Z M23.9776395,11.7294672 C25.8545105,13.7760295 27,16.5042431 27,19.5 C27,25.8512746 21.8512746,31 15.5,31 C9.14872538,31 4,25.8512746 4,19.5 C4,16.5042431 5.14548946,13.7760295 7.02236046,11.7294672 L5.79289322,10.5 L5.08578644,11.2071068 L4.37867966,10.5 L6.5,8.37867966 L7.20710678,9.08578644 L6.5,9.79289322 L7.72946725,11.0223605 L7.72946725,11.0223605 C9.25914143,9.61951962 11.1696273,8.62527274 13.2880086,8.21253595 L13.2880086,8.21253595 C12.5019056,7.57072246 12,6.5939744 12,5.5 C12,3.56700338 13.5670034,2 15.5,2 C17.4329966,2 19,3.56700338 19,5.5 C19,6.5939744 18.4980944,7.57072246 17.7119914,8.21253595 C19.8303727,8.62527274 21.7408586,9.61951962 23.2705328,11.0223605 L24.5,9.79289322 L23.7928932,9.08578644 L24.5,8.37867966 L26.6213203,10.5 L25.9142136,11.2071068 L25.2071068,10.5 L23.9776395,11.7294672 L23.9776395,11.7294672 L23.9776395,11.7294672 Z M16,7.94999094 C17.1411202,7.71835578 18,6.70947896 18,5.5 C18,4.11928813 16.8807119,3 15.5,3 C14.1192881,3 13,4.11928813 13,5.5 C13,6.70947896 13.8588798,7.71835578 15,7.94999094 L15,6 L14,6 L14,5 L17,5 L17,6 L16,6 L16,7.94999094 L16,7.94999094 L16,7.94999094 Z M8.01625397,19.9977417 C8.26161401,23.7425502 11.2554932,26.7371327 15,26.9835977 L15,26.9835977 L15,24.4859619 C15,24.2105408 15.2238576,23.9954834 15.5,23.9954834 C15.7680664,23.9954834 16,24.2150781 16,24.4859619 L16,26.9835977 C19.7445068,26.7371327 22.738386,23.7425502 22.983746,19.9977417 L20.4882202,19.9977417 C20.2127991,19.9977417 19.9977417,19.7738841 19.9977417,19.4977417 C19.9977417,19.2296753 20.2173364,18.9977417 20.4882202,18.9977417 L22.9834487,18.9977417 L22.9834487,18.9977417 C22.7359784,15.2550422 19.7430013,12.2627682 16,12.0164023 L16,12.0164023 L16,14.5095215 C16,14.7849426 15.7761424,15 15.5,15 C15.2319336,15 15,14.7804053 15,14.5095215 L15,12.0164023 C11.2569987,12.2627682 8.26402159,15.2550422 8.01655126,18.9977417 L10.5117798,18.9977417 C10.7872009,18.9977417 11.0022583,19.2215993 11.0022583,19.4977417 C11.0022583,19.7658081 10.7826636,19.9977417 10.5117798,19.9977417 L8.01625397,19.9977417 L8.01625397,19.9977417 L8.01625397,19.9977417 Z M15.5,28 C20.1944204,28 24,24.1944204 24,19.5 C24,14.8055796 20.1944204,11 15.5,11 C10.8055796,11 7,14.8055796 7,19.5 C7,24.1944204 10.8055796,28 15.5,28 L15.5,28 Z M15.5,20 C15.7761424,20 16,19.7761424 16,19.5 C16,19.2238576 15.7761424,19 15.5,19 C15.2238576,19 15,19.2238576 15,19.5 C15,19.7761424 15.2238576,20 15.5,20 L15.5,20 Z" id="stop-watch" sketch:type="MSShapeGroup"></path>
        </g>
    </g>
</svg>

<svg width="32" height="32" xmlns="http://www.w3.org/2000/svg"><path d="M16.147 18.146l3.118-3.118a.507.507 0 0 1 .71-.003c.19.19.194.513-.003.71l-3.118 3.118a1.5 1.5 0 0 1-2 2l-1.12 1.12a.507.507 0 0 1-.709.002.507.507 0 0 1 .003-.71l1.118-1.118a1.5 1.5 0 0 1 2-2zm7.83-6.417A11.459 11.459 0 0 1 27 19.5C27 25.851 21.851 31 15.5 31S4 25.851 4 19.5c0-2.996 1.145-5.724 3.022-7.77l-1.23-1.23-.706.707-.707-.707L6.5 8.379l.707.707-.707.707 1.23 1.23a11.466 11.466 0 0 1 5.558-2.81 3.5 3.5 0 1 1 4.424 0 11.466 11.466 0 0 1 5.559 2.81l1.229-1.23-.707-.707.707-.707 2.121 2.121-.707.707-.707-.707-1.23 1.23zM16 7.95a2.5 2.5 0 1 0-1 0V6h-1V5h3v1h-1v1.95zM8.016 19.998A7.501 7.501 0 0 0 15 26.984v-2.498c0-.275.224-.49.5-.49a.5.5 0 0 1 .5.49v2.498a7.501 7.501 0 0 0 6.984-6.986h-2.496a.492.492 0 0 1-.49-.5.5.5 0 0 1 .49-.5h2.495A7.501 7.501 0 0 0 16 12.016v2.494c0 .275-.224.49-.5.49a.5.5 0 0 1-.5-.49v-2.494a7.501 7.501 0 0 0-6.983 6.982h2.495c.275 0 .49.224.49.5a.5.5 0 0 1-.49.5H8.016zM15.5 28a8.5 8.5 0 1 0 0-17 8.5 8.5 0 0 0 0 17zm0-8a.5.5 0 1 0 0-1 .5.5 0 0 0 0 1z" fill="#929292" fill-rule="evenodd"/></svg>
